2024/static/img/X_white.svg

<svg xmlns="http://www.w3.org/2000/svg" width="24" height="22" fill="none" viewBox="0 0 24 22"><path fill="#fff" d="M18.9.12h3.68l-8.04 9.21L24 21.87h-7.41l-5.8-7.6-6.63 7.6H.47l8.6-9.86L0 .13h7.59l5.24 6.95zm-1.29 19.55h2.04L6.48 2.22H4.29z"/></svg>

<svg width="24" height="22" viewBox="0 0 24 22" fill="none" xmlns="http://www.w3.org/2000/svg">
<path d="M18.9 0.119995H22.58L14.54 9.33L24 21.87H16.59L10.79 14.27L4.16 21.87H0.47L9.07 12.01L0 0.129995H7.59L12.83 7.08L18.9 0.129995V0.119995ZM17.61 19.67H19.65L6.48 2.22H4.29L17.6 19.67H17.61Z" fill="white"/>
</svg>
